X: 1612
T: Reng-i Ruhsârına Gülgûn Dediler
C: Erol Sayan
O: Turkey
F: http://compmusic.upf.edu/node/140
N: rast--sarki--aksak--reng-i_ruhsarina--erol_sayan
N: makam= rast
N: form= sarki
N: usul= aksak = 9/8
M: 9/8
L: 1/16
K: C _1/4B ^f  
Q: 1/4=108
%%MIDI tuningsystem comma53
G4 c2d2 d4 e=fee de | c2 cded cBc/B/c/d/ cB=f3/2e/ dcdc  | 
w:  ARANAĞME  |   | 
B3/2^A/G2 ^3/4A2B2 B2z2 d4 (3dcB | \
w:   | 
B2 (3BAGG2 G2G2 z2d/c/d/e/ dcBA  | 
w:   | 
GFED zG2A B4 cBcd cB | A4B2 c2B/A/B/c/ BAG4AB  | 
w:  *  *  *  *  Reng_ i  ruh sâ  |  *  rı na  gül *  *  *  *  *  gûn   | 
G4 c2d2 d4 e/d/e/=f/ed dc | B2 {c}BAG2 d2d2 z2d/c/d/e/ dcBc  | 
w:  *  de di ler  gül  |  gûn  *  *  *  de di ler   SAZ  | 
d4 zc2d d4 e/d/e/=f/ed dc | c/B/c/d/ cBB2 {c}BAA2 G2c4cB  | 
w:  *  Şî ve  i  hüs  |  *  *  *  *  *  *  nü *  ne  *  ef *  sûn   | 
B3/2A/G2 ^A2B2 B2z2 d4 (3dcB | B2 (3BAGG2 G2G2 z2g/f/g/a/ gfef  | 
w:  *  *  *  de di ler   ef  |  sûn  *  *  *  de di ler   SAZ  | 
g4 ze2f g4 g/f/g/a/gf ef | d4e=f dec4de cdBc  | 
w:  *  Hal_ i şû ri  |  *  de *  me *  mef tûn   | 
A4 (3dcB(3BAG G4 G2A2 B2 | c2 (3B^ABd2 ^ced4d/=c/d/e/ dcBc  | 
w:  *  de *  *  di *  *  ler   mef  |  tûn  *  *  *  de di *  ler   SAZ  | 
d4 zc2d d4 e/d/e/=f/ed dc | c/B/c/d/ cBB2 {c}BAA2 G2c4cB  | 
w:  *  Sa na  Ley lâ   |  *  *  *  *  *  *  ba *  na  *  Mec *  nûn   | 
B3/2A/G2 ^A2B2 B2z2 d4 (3dcB | B2 (3BAGG2 G2G2 z2d/c/d/e/ dcB^A  | 
w:  *  *  *  de di ler   Mec  |  nûn  *  *  *  de di ler   SAZ  | 
G4 c2d2 d4 e=fee de | c2 cded cBc/B/c/d/ cB=f3/2e/ dcdc  | 
w:  ARANAĞME  |   | 
B3/2^A/G2 ^3/4A2B2 B2z2 d4 (3dcB | \
w:   | 
B2 (3BAGG2 G2G2 z2d/c/d/e/ dcBA  | 
w:   | 
GFED zG2A B4 cBcd cB | A4B2 c2B/A/B/c/ BAG4AB  | 
w:  *  *  *  *  Reng_ i  ruh sâ  |  *  rı na  gül *  *  *  *  *  gûn   | 
G4 c2d2 d4 e/d/e/=f/ed dc | B2 {c}BAG2 d2d2 z2d/c/d/e/ dcBc  | 
w:  *  de di ler  gül  |  gûn  *  *  *  de di ler   SAZ  | 
d4 zc2d d4 e/d/e/=f/ed dc | c/B/c/d/ cBB2 {c}BAA2 G2c4cB  | 
w:  *  Şî ve  i  hüs  |  *  *  *  *  *  *  nü *  ne  *  ef *  sûn   | 
B3/2A/G2 ^A2B2 B2z2 d4 (3dcB | B2 (3BAGG2 G2G2 z2g/f/g/a/ gfef  | 
w:  *  *  *  de di ler   ef  |  sûn  *  *  *  de di ler   SAZ  | 
g4 ze2f g4 g/f/g/a/gf ef | d4e=f dec4de cdBc  | 
w:  *  Hal_ i şû ri  |  *  de *  me *  mef tûn   | 
A4 (3dcB(3BAG G4 G2A2 B2 | c2 (3B^ABd2 ^ced4d/=c/d/e/ dcBc  | 
w:  *  de *  *  di *  *  ler   mef  |  tûn  *  *  *  de di *  ler   SAZ  | 
d4 zc2d d4 e/d/e/=f/ed dc | c/B/c/d/ cBB2 {c}BAA2 G2c4cB  | 
w:  *  Sa na  Ley lâ   |  *  *  *  *  *  *  ba *  na  *  Mec *  nûn   | 
B3/2A/G2 ^A2B2 B2z2 d4 (3dcB | B2 (3BAGG2 G2G2 |
w:  *  *  *  de di ler   Mec  |  nûn  *  *  *  de di ler    | 


